public/img/icons/rocket.svg

<?xml version="1.0" encoding="UTF-8" standalone="no" ?>
<!DOCTYPE svg PUBLIC "-//W3C//DTD SVG 1.1//EN" "http://www.w3.org/Graphics/SVG/1.1/DTD/svg11.dtd">
<svg xmlns="http://www.w3.org/2000/svg" xmlns:xlink="http://www.w3.org/1999/xlink" version="1.1" width="1080" height="1080" viewBox="0 0 1080 1080" xml:space="preserve">
<desc>Created with Fabric.js 5.2.4</desc>
<defs>
</defs>
<g transform="matrix(1 0 0 1 540 540)" id="6b2ba496-4272-4aa6-be4c-2ba665de2a15"  >
<rect style="stroke: none; stroke-width: 1; stroke-dasharray: none; stroke-linecap: butt; stroke-dashoffset: 0; stroke-linejoin: miter; stroke-miterlimit: 4; fill: rgb(255,255,255); fill-rule: nonzero; opacity: 1; visibility: hidden;" vector-effect="non-scaling-stroke"  x="-540" y="-540" rx="0" ry="0" width="1080" height="1080" />
</g>
<g transform="matrix(1 0 0 1 540 540)" id="1d4f1122-c80b-4b17-9c13-6388b74081e3"  >
</g>
<g transform="matrix(1 0 0 1 540 540)"  >
<g style="" vector-effect="non-scaling-stroke"   >
		<g transform="matrix(1 0 0 1 52.26 -53.86)"  >
<path style="stroke: none; stroke-width: 1; stroke-dasharray: none; stroke-linecap: butt; stroke-dashoffset: 0; stroke-linejoin: miter; stroke-miterlimit: 4; fill: rgb(212,225,244); fill-rule: nonzero; opacity: 1;" vector-effect="non-scaling-stroke"  transform=" translate(-308.15, -202.14)" d="M 153.3 342.8 C 154.8 338.6 158.3 335.5 162.60000000000002 334.5 C 166.00000000000003 333.7 169.60000000000002 334.4 172.50000000000003 336.4 L 162.50000000000003 326 C 159.40000000000003 322.8 154.90000000000003 321.5 150.60000000000002 322.5 C 146.3 323.5 142.70000000000002 326.6 141.3 330.8 L 126.30000000000001 382.3 L 143.20000000000002 377.3 L 153.3 342.8 z M 183.3 329.8 C 183.3 329.7 183.3 329.7 183.3 329.8 L 183.10000000000002 329.6 L 156.00000000000003 301.5 L 165.50000000000003 292.4 L 153.70000000000002 280.2 L 144.00000000000003 289.59999999999997 L 171.10000000000002 317.7 L 171.20000000000002 317.8 L 217.5 365.8 L 217.7 365.6 L 183.29999999999998 329.8 z M 166 275.2 L 195.5 239.1 L 183.7 226.9 L 154 263.2 L 241.7 354.1 L 241.89999999999998 353.90000000000003 L 165.99999999999997 275.20000000000005 z M 203.3 229.4 L 319.3 87.1 C 347.40000000000003 52.699999999999996 388.20000000000005 33.3 431.4 33.99999999999999 C 432.59999999999997 33.99999999999999 433.79999999999995 33.99999999999999 434.9 34.099999999999994 L 490 36.099999999999994 L 490 24.5 L 422.9 22.1 C 421.7 22.1 420.5 22 419.4 22 C 376.2 21.3 335.4 40.7 307.29999999999995 75.1 L 191.29999999999995 217.4 L 288.8 318 L 289 317.8 L 203.3 229.4 z" stroke-linecap="round" />
</g>
		<g transform="matrix(1 0 0 1 -0.9 0.02)"  >
<path style="stroke: none; stroke-width: 1; stroke-dasharray: none; stroke-linecap: butt; stroke-dashoffset: 0; stroke-linejoin: miter; stroke-miterlimit: 4; fill: rgb(243,146,0); fill-rule: nonzero; opacity: 1;" vector-effect="non-scaling-stroke"  transform=" translate(-254.99, -256.02)" d="M 279.4 190.9 C 268.29999999999995 201.9 268.09999999999997 219.8 278.9 231 C 284.09999999999997 236.4 291.29999999999995 239.5 298.79999999999995 239.6 L 299.09999999999997 239.6 C 306.49999999999994 239.6 313.59999999999997 236.7 318.79999999999995 231.5 C 329.9 220.5 330.09999999999997 202.6 319.29999999999995 191.4 C 308.49999999999994 180.20000000000002 290.69999999999993 180 279.59999999999997 190.70000000000002 C 279.59999999999997 190.8 279.49999999999994 190.8 279.4 190.9 z M 310.5 222.9 C 304.2 229.1 294 229.1 287.8 222.8 L 287.7 222.70000000000002 C 281.4 216.20000000000002 281.5 205.9 288 199.50000000000003 C 291 196.50000000000003 295.1 194.80000000000004 299.3 194.90000000000003 L 299.5 194.90000000000003 C 303.8 194.90000000000003 307.9 196.70000000000005 310.9 199.80000000000004 C 317 206.20000000000005 316.9 216.60000000000005 310.5 222.90000000000003 z M 374.2 143.3 C 375.8 143.3 377.3 142.70000000000002 378.4 141.60000000000002 L 428.59999999999997 92.20000000000002 C 446.4 109.00000000000001 471.2 116.00000000000001 495.19999999999993 111.10000000000002 C 498.3999999999999 110.40000000000002 500.49999999999994 107.30000000000003 499.8999999999999 104.00000000000003 C 499.19999999999993 100.80000000000003 496.0999999999999 98.70000000000003 492.7999999999999 99.30000000000003 C 471.3999999999999 103.60000000000002 449.2999999999999 96.70000000000003 434.1999999999999 80.90000000000003 C 418 64.2 412.2 40 419 17.8 C 420 14.600000000000001 418.2 11.3 415 10.3 C 411.8 9.3 408.5 11.100000000000001 407.5 14.3 C 400.2 38.1 405.1 63.900000000000006 420.5 83.39999999999999 L 370 133 C 367.6 135.3 367.6 139.1 369.9 141.5 C 371 142.7 372.59999999999997 143.3 374.2 143.3 z M 353.9 163.3 C 355.5 163.3 357 162.70000000000002 358.09999999999997 161.60000000000002 L 366.49999999999994 153.3 C 368.8999999999999 151 368.8999999999999 147.20000000000002 366.49999999999994 144.8 C 364.19999999999993 142.5 360.3999999999999 142.4 357.99999999999994 144.70000000000002 L 349.59999999999997 153.00000000000003 C 347.2 155.30000000000004 347.2 159.10000000000002 349.49999999999994 161.50000000000003 C 350.79999999999995 162.60000000000002 352.29999999999995 163.30000000000004 353.8999999999999 163.30000000000004 z M 335.3 167.2 L 333.2 169.29999999999998 C 330.8 171.6 330.8 175.39999999999998 333.09999999999997 177.79999999999998 C 335.4 180.2 339.2 180.2 341.59999999999997 177.89999999999998 L 343.7 175.79999999999998 C 346.09999999999997 173.49999999999997 346.09999999999997 169.7 343.8 167.29999999999998 C 341.50000000000006 164.89999999999998 337.7 164.79999999999998 335.3 167.2 z M 43.8 387.2 C 45.4 387.2 46.9 386.59999999999997 48 385.5 L 120.5 314.1 C 122.9 311.8 122.9 308 120.6 305.6 C 118.29999999999998 303.20000000000005 114.5 303.20000000000005 112.1 305.5 L 39.6 377 C 37.2 379.3 37.2 383.1 39.5 385.5 C 40.7 386.6 42.2 387.2 43.8 387.2 z M 32.2 401.1 C 34.6 398.8 34.6 395 32.300000000000004 392.6 C 30.000000000000007 390.20000000000005 26.200000000000003 390.20000000000005 23.800000000000004 392.5 L 11.800000000000004 404.3 C 9.400000000000004 406.6 9.400000000000004 410.40000000000003 11.700000000000005 412.8 C 14.000000000000005 415.2 17.800000000000004 415.2 20.200000000000003 412.90000000000003 L 32.2 401.1 z M 88 379.6 L 54.2 412.90000000000003 C 51.800000000000004 415.20000000000005 51.800000000000004 419.00000000000006 54.1 421.40000000000003 C 56.4 423.8 60.2 423.8 62.6 421.50000000000006 L 96.4 388.20000000000005 C 98.7 385.80000000000007 98.7 382.00000000000006 96.4 379.70000000000005 C 94.10000000000001 377.40000000000003 90.4 377.30000000000007 88 379.6 z M 43.8 431.6 C 41.5 429.20000000000005 37.699999999999996 429.20000000000005 35.3 431.5 L 19.099999999999998 447.4 C 16.7 449.7 16.7 453.5 18.999999999999996 455.9 C 21.299999999999994 458.29999999999995 25.099999999999994 458.29999999999995 27.499999999999996 456 L 43.699999999999996 440.1 C 46.099999999999994 437.8 46.099999999999994 434 43.8 431.6 z M 88.8 448.4 L 119.1 418.59999999999997 C 121.5 416.29999999999995 121.5 412.49999999999994 119.19999999999999 410.09999999999997 C 116.89999999999998 407.7 113.1 407.7 110.69999999999999 409.99999999999994 L 80.39999999999999 439.79999999999995 C 77.99999999999999 442.09999999999997 77.99999999999999 445.9 80.3 448.29999999999995 C 82.60000000000001 450.69999999999993 86.39999999999999 450.69999999999993 88.8 448.4 z M 57.2 462.7 L 45.2 474.5 C 42.800000000000004 476.8 42.800000000000004 480.6 45.1 483 C 47.4 485.4 51.2 485.4 53.6 483.1 L 65.6 471.3 C 68 469 68 465.2 65.69999999999999 462.8 C 63.39999999999998 460.40000000000003 59.499999999999986 460.3 57.19999999999999 462.7 z M 113.4 469.4 C 115.7 471.79999999999995 119.5 471.79999999999995 121.9 469.5 L 199 393.6 C 201.4 391.3 201.4 387.5 199.1 385.1 C 196.79999999999998 382.70000000000005 193 382.70000000000005 190.6 385 L 113.5 460.9 C 111.1 463.2 111.1 467 113.4 469.4 z M 101.5 481.1 C 99.2 478.70000000000005 95.4 478.70000000000005 93 481 L 82.1 491.7 C 79.69999999999999 494 79.69999999999999 497.8 82 500.2 C 84.30000000000001 502.59999999999997 88.1 502.59999999999997 90.5 500.3 L 101.4 489.6 C 103.80000000000001 487.20000000000005 103.9 483.40000000000003 101.5 481.1 z" stroke-linecap="round" />
</g>
		<g transform="matrix(1 0 0 1 35.78 -39.41)"  >
<path style="stroke: none; stroke-width: 1; stroke-dasharray: none; stroke-linecap: butt; stroke-dashoffset: 0; stroke-linejoin: miter; stroke-miterlimit: 4; fill: rgb(81,93,117); fill-rule: nonzero; opacity: 1;" vector-effect="non-scaling-stroke"  transform=" translate(-291.67, -216.59)" d="M 491.6 12.6 L 423.40000000000003 10.1 C 422.1 10.1 420.90000000000003 10 419.6 10 C 396.3 9.7 373.3 14.8 352.3 24.8 C 331.3 34.9 312.7 49.5 298 67.5 L 231.4 149.1 L 92.20000000000002 100.1 C 88.70000000000002 98.8 84.80000000000001 100.1 82.80000000000001 103.19999999999999 C 80.80000000000001 106.39999999999999 81.20000000000002 110.69999999999999 83.9 113.39999999999999 L 179.60000000000002 212.6 L 142.50000000000003 258.2 C 139.90000000000003 261.4 140.10000000000002 266 142.90000000000003 269 L 145.30000000000004 271.5 L 132.50000000000003 283.8 C 131.00000000000003 285.2 130.20000000000002 287.2 130.10000000000002 289.2 C 130.10000000000002 291.2 130.8 293.09999999999997 132.20000000000002 294.59999999999997 L 147.8 310.7 C 139.4 312.59999999999997 132.60000000000002 318.7 129.9 326.9 L 114.7 379.29999999999995 C 113.5 383.4 114.60000000000001 387.69999999999993 117.5 390.79999999999995 C 120.5 393.9 125 395.09999999999997 129.1 393.9 L 180.5 378.79999999999995 L 180.8 378.69999999999993 C 188.70000000000002 375.99999999999994 194.70000000000002 369.49999999999994 196.8 361.49999999999994 L 212 377.19999999999993 C 213.4 378.69999999999993 215.4 379.49999999999994 217.4 379.49999999999994 C 219.4 379.49999999999994 221.3 378.69999999999993 222.70000000000002 377.29999999999995 L 235.50000000000003 364.99999999999994 C 238.40000000000003 367.79999999999995 242.90000000000003 368.09999999999997 246.10000000000002 365.69999999999993 L 292.90000000000003 329.8999999999999 L 380.30000000000007 420.4999999999999 C 381.9000000000001 422.1999999999999 384.1000000000001 423.1999999999999 386.50000000000006 423.1999999999999 C 390.90000000000003 423.1999999999999 394.40000000000003 419.6999999999999 394.40000000000003 415.39999999999986 C 394.40000000000003 414.4999999999999 394.3 413.59999999999985 393.90000000000003 412.6999999999999 L 351.8 284.89999999999986 L 437 219.69999999999987 C 455.9 205.39999999999986 471.2 186.89999999999986 481.8 165.69999999999987 C 495.1 138.89999999999986 501.8 109.09999999999988 501.8 77.29999999999987 L 501.8 23.4 C 501.90000000000003 17.599999999999998 497.40000000000003 12.899999999999999 491.6 12.599999999999998 z M 104.1 117.1 L 223.39999999999998 159.1 L 187.29999999999998 203.3 L 104.09999999999998 117.10000000000001 z M 182.1 346.29999999999995 C 185.2 349.4 186.4 353.9 185.4 358.19999999999993 C 184.4 362.49999999999994 181.3 365.99999999999994 177.1 367.3999999999999 L 126.39999999999999 382.2999999999999 L 141.39999999999998 330.7999999999999 C 142.89999999999998 326.5999999999999 146.39999999999998 323.4999999999999 150.7 322.4999999999999 C 155 321.4999999999999 159.5 322.7999999999999 162.6 325.9999999999999 L 181.79999999999998 345.89999999999986 C 181.89999999999998 345.9999999999999 181.99999999999997 346.09999999999985 182.1 346.29999999999984 z M 217.6 365.69999999999993 L 171.3 317.69999999999993 L 171.20000000000002 317.5999999999999 L 144.00000000000003 289.4999999999999 L 153.70000000000002 280.0999999999999 L 227.20000000000002 356.3999999999999 L 217.60000000000002 365.69999999999993 z M 241.7 354.0999999999999 L 154 263.2 L 183.6 226.89999999999998 L 279.2 325.5 L 241.7 354.1 z M 377.2 399.8999999999999 L 302.6 322.5999999999999 L 341.90000000000003 292.5999999999999 L 377.20000000000005 399.8999999999999 z M 490 77.3 C 490 107.3 483.7 135.3 471.2 160.39999999999998 C 461.4 179.89999999999998 447.3 196.89999999999998 429.9 210.2 L 288.8 318 L 191.3 217.4 L 307.3 75.1 C 335.40000000000003 40.699999999999996 376.20000000000005 21.299999999999997 419.4 21.999999999999993 C 420.59999999999997 21.999999999999993 421.79999999999995 21.999999999999993 422.9 22.099999999999994 L 490 24.499999999999993 L 490 77.29999999999998 z" stroke-linecap="round" />
</g>
</g>
</g>
<g transform="matrix(1 0 0 1 540.5 599.83)" style="" id="f59c38ea-dab1-4322-a261-0d321af8cf58"  >
		<text xml:space="preserve" font-family="Raleway" font-size="105" font-style="normal" font-weight="900" style="stroke: none; stroke-width: 1; stroke-dasharray: none; stroke-linecap: butt; stroke-dashoffset: 0; stroke-linejoin: miter; stroke-miterlimit: 4; fill: rgb(0,0,0); fill-rule: nonzero; opacity: 1; white-space: pre;" ><tspan x="-257.09" y="-26.34" >maximum</tspan><tspan x="-277.2" y="92.31" >awareness</tspan></text>
</g>
</svg>

<svg version="1.1" id="Layer_1" xmlns="http://www.w3.org/2000/svg" x="0" y="0" viewBox="0 0 512 512" style="enable-background:new 0 0 512 512" xml:space="preserve"><style>.st0{fill:#d4e1f4}.st1{fill:#f39200}</style><path class="st0" d="M153.3 342.8c1.5-4.2 5-7.3 9.3-8.3 3.4-.8 7-.1 9.9 1.9l-10-10.4c-3.1-3.2-7.6-4.5-11.9-3.5-4.3 1-7.9 4.1-9.3 8.3l-15 51.5 16.9-5 10.1-34.5zM183.3 329.8c0-.1 0-.1 0 0l-.2-.2-27.1-28.1 9.5-9.1-11.8-12.2-9.7 9.4 27.1 28.1.1.1 46.3 48 .2-.2-34.4-35.8zM166 275.2l29.5-36.1-11.8-12.2-29.7 36.3 87.7 90.9.2-.2-75.9-78.7zM203.3 229.4l116-142.3c28.1-34.4 68.9-53.8 112.1-53.1 1.2 0 2.4 0 3.5.1l55.1 2V24.5l-67.1-2.4c-1.2 0-2.4-.1-3.5-.1-43.2-.7-84 18.7-112.1 53.1l-116 142.3L288.8 318l.2-.2-85.7-88.4z"/><path class="st1" d="M279.4 190.9c-11.1 11-11.3 28.9-.5 40.1 5.2 5.4 12.4 8.5 19.9 8.6h.3c7.4 0 14.5-2.9 19.7-8.1 11.1-11 11.3-28.9.5-40.1-10.8-11.2-28.6-11.4-39.7-.7 0 .1-.1.1-.2.2zm31.1 32c-6.3 6.2-16.5 6.2-22.7-.1l-.1-.1c-6.3-6.5-6.2-16.8.3-23.2 3-3 7.1-4.7 11.3-4.6h.2c4.3 0 8.4 1.8 11.4 4.9 6.1 6.4 6 16.8-.4 23.1zM374.2 143.3c1.6 0 3.1-.6 4.2-1.7l50.2-49.4c17.8 16.8 42.6 23.8 66.6 18.9 3.2-.7 5.3-3.8 4.7-7.1-.7-3.2-3.8-5.3-7.1-4.7-21.4 4.3-43.5-2.6-58.6-18.4C418 64.2 412.2 40 419 17.8c1-3.2-.8-6.5-4-7.5s-6.5.8-7.5 4c-7.3 23.8-2.4 49.6 13 69.1L370 133c-2.4 2.3-2.4 6.1-.1 8.5 1.1 1.2 2.7 1.8 4.3 1.8zM353.9 163.3c1.6 0 3.1-.6 4.2-1.7l8.4-8.3c2.4-2.3 2.4-6.1 0-8.5-2.3-2.3-6.1-2.4-8.5-.1l-8.4 8.3c-2.4 2.3-2.4 6.1-.1 8.5 1.3 1.1 2.8 1.8 4.4 1.8zM335.3 167.2l-2.1 2.1c-2.4 2.3-2.4 6.1-.1 8.5 2.3 2.4 6.1 2.4 8.5.1l2.1-2.1c2.4-2.3 2.4-6.1.1-8.5s-6.1-2.5-8.5-.1zM43.8 387.2c1.6 0 3.1-.6 4.2-1.7l72.5-71.4c2.4-2.3 2.4-6.1.1-8.5s-6.1-2.4-8.5-.1L39.6 377c-2.4 2.3-2.4 6.1-.1 8.5 1.2 1.1 2.7 1.7 4.3 1.7zM32.2 401.1c2.4-2.3 2.4-6.1.1-8.5s-6.1-2.4-8.5-.1l-12 11.8c-2.4 2.3-2.4 6.1-.1 8.5s6.1 2.4 8.5.1l12-11.8zM88 379.6l-33.8 33.3c-2.4 2.3-2.4 6.1-.1 8.5s6.1 2.4 8.5.1l33.8-33.3c2.3-2.4 2.3-6.2 0-8.5s-6-2.4-8.4-.1zM43.8 431.6c-2.3-2.4-6.1-2.4-8.5-.1l-16.2 15.9c-2.4 2.3-2.4 6.1-.1 8.5s6.1 2.4 8.5.1l16.2-15.9c2.4-2.3 2.4-6.1.1-8.5zM88.8 448.4l30.3-29.8c2.4-2.3 2.4-6.1.1-8.5s-6.1-2.4-8.5-.1l-30.3 29.8c-2.4 2.3-2.4 6.1-.1 8.5s6.1 2.4 8.5.1zM57.2 462.7l-12 11.8c-2.4 2.3-2.4 6.1-.1 8.5s6.1 2.4 8.5.1l12-11.8c2.4-2.3 2.4-6.1.1-8.5s-6.2-2.5-8.5-.1zM113.4 469.4c2.3 2.4 6.1 2.4 8.5.1l77.1-75.9c2.4-2.3 2.4-6.1.1-8.5-2.3-2.4-6.1-2.4-8.5-.1l-77.1 75.9c-2.4 2.3-2.4 6.1-.1 8.5zM101.5 481.1c-2.3-2.4-6.1-2.4-8.5-.1l-10.9 10.7c-2.4 2.3-2.4 6.1-.1 8.5s6.1 2.4 8.5.1l10.9-10.7c2.4-2.4 2.5-6.2.1-8.5z"/><path d="m491.6 12.6-68.2-2.5c-1.3 0-2.5-.1-3.8-.1-23.3-.3-46.3 4.8-67.3 14.8-21 10.1-39.6 24.7-54.3 42.7l-66.6 81.6-139.2-49c-3.5-1.3-7.4 0-9.4 3.1-2 3.2-1.6 7.5 1.1 10.2l95.7 99.2-37.1 45.6c-2.6 3.2-2.4 7.8.4 10.8l2.4 2.5-12.8 12.3c-1.5 1.4-2.3 3.4-2.4 5.4 0 2 .7 3.9 2.1 5.4l15.6 16.1c-8.4 1.9-15.2 8-17.9 16.2l-15.2 52.4c-1.2 4.1-.1 8.4 2.8 11.5 3 3.1 7.5 4.3 11.6 3.1l51.4-15.1.3-.1c7.9-2.7 13.9-9.2 16-17.2l15.2 15.7c1.4 1.5 3.4 2.3 5.4 2.3 2 0 3.9-.8 5.3-2.2l12.8-12.3c2.9 2.8 7.4 3.1 10.6.7l46.8-35.8 87.4 90.6c1.6 1.7 3.8 2.7 6.2 2.7 4.4 0 7.9-3.5 7.9-7.8 0-.9-.1-1.8-.5-2.7l-42.1-127.8 85.2-65.2c18.9-14.3 34.2-32.8 44.8-54 13.3-26.8 20-56.6 20-88.4V23.4c.1-5.8-4.4-10.5-10.2-10.8zM104.1 117.1l119.3 42-36.1 44.2-83.2-86.2zm78 229.2c3.1 3.1 4.3 7.6 3.3 11.9-1 4.3-4.1 7.8-8.3 9.2l-50.7 14.9 15-51.5c1.5-4.2 5-7.3 9.3-8.3 4.3-1 8.8.3 11.9 3.5l19.2 19.9c.1.1.2.2.3.4zm35.5 19.4-46.3-48-.1-.1-27.2-28.1 9.7-9.4 73.5 76.3-9.6 9.3zm24.1-11.6L154 263.2l29.6-36.3 95.6 98.6-37.5 28.6zm135.5 45.8-74.6-77.3 39.3-30 35.3 107.3zM490 77.3c0 30-6.3 58-18.8 83.1-9.8 19.5-23.9 36.5-41.3 49.8L288.8 318l-97.5-100.6 116-142.3c28.1-34.4 68.9-53.8 112.1-53.1 1.2 0 2.4 0 3.5.1l67.1 2.4v52.8z" style="fill:#515d75"/></svg>
